modules/zondicons/icons/shopping-cart.svg

<?xml version="1.0" encoding="UTF-8" standalone="no"?>
<svg width="20px" height="20px" viewBox="0 0 20 20" version="1.1" xmlns="http://www.w3.org/2000/svg" xmlns:xlink="http://www.w3.org/1999/xlink">
    <!-- Generator: Sketch 3.7.2 (28276) - http://www.bohemiancoding.com/sketch -->
    <title>shopping-cart</title>
    <desc>Created with Sketch.</desc>
    <defs></defs>
    <g id="Page-1" stroke="none" stroke-width="1" fill="none" fill-rule="evenodd">
        <g id="shopping-cart" fill="#000000">
            <path d="M3,5 L4.33333333,9 L4,9 C2.34314575,9 1,10.3431458 1,12 C1,13.6568542 2.34314575,15 4,15 L17,15 L17,13 L4.00684547,13 C3.45078007,13 3,12.5561352 3,12 C3,11.4477153 3.44748943,11 3.99850233,11 L10.5,11 L17,11 L20,2 L4,2 L4,0.997030139 C4,0.453036308 3.54809015,0 2.9906311,0 L0,0 L0,2 L2,2 L3,5 Z M5,20 C6.1045695,20 7,19.1045695 7,18 C7,16.8954305 6.1045695,16 5,16 C3.8954305,16 3,16.8954305 3,18 C3,19.1045695 3.8954305,20 5,20 Z M15,20 C16.1045695,20 17,19.1045695 17,18 C17,16.8954305 16.1045695,16 15,16 C13.8954305,16 13,16.8954305 13,18 C13,19.1045695 13.8954305,20 15,20 Z" id="Combined-Shape"></path>
        </g>
    </g>
</svg>

<svg width="20" height="20" viewBox="0 0 20 20" xmlns="http://www.w3.org/2000/svg"><path d="M3 5l1.333 4H4a3 3 0 0 0 0 6h13v-2H4.007a1.001 1.001 0 1 1-.008-2H17l3-9H4V.997C4 .453 3.548 0 2.99 0H0v2h2l1 3zm2 15a2 2 0 1 0 0-4 2 2 0 0 0 0 4zm10 0a2 2 0 1 0 0-4 2 2 0 0 0 0 4z" fill="#000" fill-rule="evenodd"/></svg>
